public/assets/icons/delete.svg

<svg width="20" height="20" viewBox="0 0 20 20" fill="none" xmlns="http://www.w3.org/2000/svg">
<path fill-rule="evenodd" clip-rule="evenodd" d="M4.26401 6.45975C4.60842 6.43679 4.90624 6.69738 4.9292 7.04179L5.31248 12.7911C5.38737 13.9143 5.44072 14.6958 5.55786 15.2838C5.67149 15.8542 5.8301 16.1561 6.05794 16.3692C6.28579 16.5824 6.59758 16.7206 7.17425 16.796C7.76875 16.8738 8.55209 16.875 9.67779 16.875H10.3223C11.448 16.875 12.2313 16.8738 12.8258 16.796C13.4025 16.7206 13.7143 16.5824 13.9421 16.3692C14.17 16.1561 14.3286 15.8542 14.4422 15.2838C14.5593 14.6958 14.6127 13.9143 14.6876 12.7911L15.0709 7.04179C15.0938 6.69738 15.3916 6.43679 15.736 6.45975C16.0805 6.48271 16.3411 6.78053 16.3181 7.12494L15.9319 12.9181C15.8606 13.987 15.8031 14.8505 15.6681 15.528C15.5278 16.2324 15.2891 16.8208 14.7961 17.2821C14.3031 17.7433 13.7001 17.9423 12.9879 18.0355C12.3029 18.1251 11.4375 18.125 10.3662 18.125H9.63385C8.56252 18.125 7.69716 18.1251 7.01212 18.0355C6.29991 17.9423 5.69696 17.7433 5.20396 17.2821C4.71097 16.8208 4.47228 16.2324 4.33195 15.528C4.19697 14.8505 4.13942 13.987 4.06818 12.9181L3.68197 7.12494C3.65901 6.78053 3.9196 6.48271 4.26401 6.45975Z" fill="#FF5050"/>
<path fill-rule="evenodd" clip-rule="evenodd" d="M8.62941 1.87503L8.5911 1.87502C8.41077 1.8749 8.25367 1.8748 8.10532 1.89849C7.51923 1.99208 7.01207 2.35762 6.73795 2.88403C6.66856 3.01728 6.61897 3.16636 6.56206 3.33747L6.54996 3.37382L6.46905 3.61654C6.45323 3.66401 6.44882 3.67709 6.44498 3.6877C6.29905 4.09113 5.9207 4.36383 5.49182 4.3747C5.48054 4.37498 5.46673 4.37503 5.4167 4.37503H2.91663C2.57145 4.37503 2.29163 4.65485 2.29163 5.00003C2.29163 5.34521 2.57145 5.62503 2.91663 5.62503L5.42383 5.62503L5.43778 5.62503H14.5623L14.5762 5.62503L17.0834 5.62503C17.4285 5.62503 17.7084 5.34521 17.7084 5.00003C17.7084 4.65485 17.4285 4.37503 17.0834 4.37503H14.5834C14.5333 4.37503 14.5195 4.37498 14.5082 4.3747C14.0794 4.36383 13.701 4.09111 13.5551 3.68768C13.5513 3.67715 13.5468 3.66378 13.531 3.61654L13.4501 3.37382L13.438 3.33745C13.3811 3.16634 13.3315 3.01727 13.2621 2.88403C12.988 2.35762 12.4808 1.99208 11.8947 1.89849C11.7464 1.8748 11.5893 1.8749 11.409 1.87502L11.3706 1.87503H8.62941ZM7.62044 4.1129C7.58771 4.20337 7.54968 4.29085 7.50675 4.37503H12.4933C12.4504 4.29085 12.4123 4.20338 12.3796 4.11292L12.3474 4.01846L12.2642 3.7691C12.1883 3.54117 12.1708 3.49469 12.1534 3.46137C12.0621 3.2859 11.893 3.16405 11.6976 3.13285C11.6605 3.12693 11.6109 3.12503 11.3706 3.12503H8.62941C8.38915 3.12503 8.33953 3.12693 8.30242 3.13285C8.10706 3.16405 7.93801 3.2859 7.84663 3.46137C7.82928 3.49469 7.81179 3.54118 7.73581 3.7691L7.65264 4.01861C7.64012 4.05619 7.63038 4.08543 7.62044 4.1129Z" fill="#FF5050"/>
</svg>

<svg width="20" height="20" viewBox="0 0 20 20" fill="none" xmlns="http://www.w3.org/2000/svg"><path fill-rule="evenodd" clip-rule="evenodd" d="M4.264 6.46a.625.625 0 0 1 .665.582l.383 5.75c.075 1.122.129 1.904.246 2.492.113.57.272.872.5 1.085s.54.352 1.116.427c.595.078 1.378.079 2.504.079h.644c1.126 0 1.91-.001 2.504-.079.576-.075.888-.214 1.116-.427s.387-.515.5-1.085c.117-.588.17-1.37.246-2.493l.383-5.75a.625.625 0 1 1 1.247.084l-.386 5.793c-.071 1.069-.129 1.933-.264 2.61-.14.704-.379 1.293-.872 1.754s-1.096.66-1.808.753c-.685.09-1.55.09-2.622.09h-.732c-1.071 0-1.937 0-2.622-.09-.712-.093-1.315-.292-1.808-.753s-.732-1.05-.872-1.754c-.135-.678-.193-1.541-.264-2.61l-.386-5.793a.625.625 0 0 1 .582-.665M8.63 1.875h-.04c-.18 0-.337 0-.486.023a1.88 1.88 0 0 0-1.367.986 3 3 0 0 0-.176.453l-.012.037-.08.243-.025.07a1.04 1.04 0 0 1-1.028.688h-2.5a.625.625 0 1 0 0 1.25h14.166a.625.625 0 0 0 0-1.25h-2.575a1.04 1.04 0 0 1-.977-.758l-.08-.243-.013-.037a3 3 0 0 0-.176-.453 1.88 1.88 0 0 0-1.367-.986 3 3 0 0 0-.486-.023h-2.78M7.62 4.113q-.048.135-.113.262h4.986a2 2 0 0 1-.113-.262l-.033-.095-.083-.249a3 3 0 0 0-.11-.308.63.63 0 0 0-.456-.328 3 3 0 0 0-.327-.008H8.629c-.24 0-.29.002-.327.008a.63.63 0 0 0-.455.328c-.018.034-.035.08-.111.308l-.083.25z" fill="#FF5050"/></svg>
